images/cryptokek.svg

<svg height="250" viewBox="0 0 250 250" width="250" xmlns="http://www.w3.org/2000/svg"><g fill="#030303"><path d="m234.578125 52.386719v142.152343c0 1.390626-.648437 2.722657-1.804687 3.707032-1.160157.980468-2.730469 1.53125-4.367188 1.53125h-33.054688c-1.636718 0-3.207031-.550782-4.363281-1.53125-1.15625-.984375-1.808593-2.316406-1.808593-3.707032v-138.660156c0-2.285156 1.070312-4.476562 2.976562-6.09375 1.902344-1.617187 4.488281-2.527344 7.183594-2.527344h29.09375c1.609375.007813 3.152344.546876 4.300781 1.503907s1.8125 2.257812 1.84375 3.625zm0 0"/><path d="m104.488281 103.707031-29.570312-26.253906c-7.058594-6.265625-10.898438-14.65625-10.667969-23.324219.230469-8.667968 4.507812-16.90625 11.894531-22.898437l19.296875-15.652344c7.386719-5.992187 17.273438-9.25 27.488282-9.054687 10.214843.195312 19.921874 3.828124 26.980468 10.09375l26.726563 23.726562c7.796875 6.921875 12.035156 16.183594 11.78125 25.757812-.253907 9.570313-4.980469 18.664063-13.132813 25.277344l-16.398437 13.304688c-7.375 5.980468-17.242188 9.238281-27.4375 9.054687-10.195313-.183593-19.890625-3.792969-26.960938-10.03125zm0 0"/><path d="m155.398438 233-59.769532.824219c-1.664062.023437-3.3125-.230469-4.859375-.75s-2.957031-1.289063-4.152343-2.273438c-1.195313-.980469-2.148438-2.152343-2.808594-3.445312-.664063-1.292969-1.015625-2.6875-1.042969-4.097657l-.058594-3.070312c-.027343-1.414062.273438-2.8125.882813-4.125.613281-1.3125 1.523437-2.507812 2.679687-3.523438 1.15625-1.011718 2.535157-1.824218 4.058594-2.382812 1.527344-.5625 3.167969-.863281 4.828125-.886719l56.152344-.773437c4.316406-.058594 8.484375 1.339844 11.585937 3.886718 3.101563 2.550782 4.886719 6.039063 4.957031 9.703126.054688 2.847656-1.230468 5.597656-3.5625 7.644531-2.335937 2.050781-5.535156 3.226562-8.890624 3.269531zm0 0"/><path d="m58.890625 52.960938v146.355468c0 .515625-.238281 1.007813-.667969 1.375-.429687.363282-1.015625.570313-1.621094.570313h-38.523437c-.609375 0-1.191406-.207031-1.621094-.570313-.429687-.367187-.671875-.859375-.671875-1.375v-142.949218c0-1.421876.664063-2.78125 1.84375-3.785157 1.183594-1 2.789063-1.566406 4.460938-1.566406h34.484375c.609375 0 1.191406.207031 1.621093.570313.429688.367187.671876.859374.671876 1.375zm0 0"/><path d="m197.054688 36.941406 7.039062 172.777344c.019531.515625-.199219 1.015625-.613281 1.394531-.417969.375-.992188.597657-1.597657.613281l-149.890624 4.398438c-.605469.019531-1.199219-.167969-1.644532-.519531-.441406-.351563-.703125-.839844-.726562-1.355469l-6.898438-169.375c-.058594-1.417969.550782-2.796875 1.691406-3.832031 1.140626-1.039063 2.71875-1.648438 4.390626-1.699219l145.777343-4.273438c.605469-.019531 1.199219.167969 1.640625.519532.445313.351562.707032.839844.726563 1.355468zm0 0"/><path d="m163.65625 223.96875-71.359375.984375c-3.355469.042969-6.597656-1.042969-9.011719-3.023437-2.410156-1.984376-3.796875-4.695313-3.851562-7.546876l-.828125-43.230468c-.050781-2.847656 1.230469-5.597656 3.5625-7.644532 2.335937-2.046874 5.535156-3.222656 8.890625-3.269531l67.714844-.933593c4.316406-.058594 8.484374 1.339843 11.585937 3.886718 3.101563 2.550782 4.886719 6.039063 4.953125 9.703125l.769531 40.160157c.054688 2.847656-1.226562 5.597656-3.5625 7.644531-2.335937 2.046875-5.53125 3.222656-8.890625 3.269531zm0 0"/></g><path d="m101.347656 125.464844-62.171875-28.359375c-1.214843-.554688-2.574219-.832031-3.953125-.808594-1.378906.027344-2.722656.355469-3.90625.953125-1.183594.601562-2.164062 1.449219-2.847656 2.464844-.679688 1.015625-1.039062 2.167968-1.042969 3.335937v68.921875c-.011719 1.222656.371094 2.425782 1.109375 3.472656.742188 1.050782 1.808594 1.90625 3.085938 2.472657l62.175781 28.359375c1.160156.527344 2.457031.808594 3.777344.816406 1.441406.003906 2.855469-.332031 4.085937-.972656 1.183594-.597656 2.160156-1.445313 2.839844-2.460938s1.039062-2.160156 1.042969-3.328125v-68.921875c-.003907-1.21875-.394531-2.417968-1.132813-3.464844-.738281-1.046874-1.796875-1.902343-3.0625-2.480468zm-15.3125 8.375-15.003906 9.816406-13.675781-6.257812v15.164062l-13.988281 9.128906v-47.300781zm-39.070312 35.746094 15.027344-9.792969 13.675781 6.230469v-15.160157l13.984375-9.128906v47.367187zm0 0" fill="#fff"/><path d="m171.234375 52.054688-46.234375 21.089843-28.496094-13 46.234375-21.085937-12.660156-5.769532c-1.558594-.707031-3.296875-1.078124-5.066406-1.078124-1.765625 0-3.507813.371093-5.066407 1.078124l-51.804687 23.585938c-.691406.320312-1.269531.789062-1.667969 1.363281-.402344.574219-.613281 1.230469-.613281 1.898438 0 .664062.210937 1.320312.613281 1.894531.398438.574219.976563 1.042969 1.667969 1.363281l51.726563 23.585938c1.554687.71875 3.296874 1.09375 5.066406 1.09375 1.769531 0 3.511718-.375 5.066406-1.09375l51.703125-23.585938c.699219-.3125 1.28125-.78125 1.6875-1.359375.410156-.574218.625-1.230468.625-1.898437 0-.671875-.214844-1.328125-.625-1.902344-.40625-.574219-.988281-1.046875-1.6875-1.359375zm0 0" fill="#fff"/><path d="m218.691406 97.257812c-1.171875-.605468-2.511718-.9375-3.882812-.964843-1.371094-.027344-2.726563.253906-3.929688.8125l-62.175781 28.359375c-1.265625.578125-2.324219 1.433594-3.0625 2.480468-.738281 1.046876-1.128906 2.246094-1.132813 3.464844v68.921875c.015626 1.785157.855469 3.496094 2.34375 4.761719 1.484376 1.265625 3.496094 1.984375 5.601563 2 1.320313-.003906 2.617187-.285156 3.777344-.816406l62.175781-28.359375c1.277344-.566407 2.34375-1.421875 3.082031-2.472657.742188-1.046874 1.125-2.25 1.109375-3.472656v-68.921875c.011719-1.171875-.34375-2.324219-1.03125-3.34375-.6875-1.015625-1.679687-1.863281-2.875-2.449219zm-12.035156 64.414063-13.984375-9.128906v-15.164063l-13.675781 6.253906-15.03125-9.792968 42.691406-19.449219zm-46.257812-19.894531 13.988281 9.128906v15.164062l13.671875-6.234374 15.03125 9.792968-42.691406 19.472656zm0 0" fill="#fff"/><path d="m249.714844 58.355469c-.074219-.1875-.160156-.371094-.261719-.550781-.144531-.367188-.324219-.722657-.546875-1.0625 0-.199219-.335938-.375-.492188-.574219-.222656-.292969-.476562-.566407-.757812-.816407-.230469-.167968-.472656-.324218-.726562-.464843-.25-.195313-.511719-.382813-.78125-.554688h-.183594l-.15625-.109375-117.03125-53.359375c-1.152344-.539062-2.445313-.8203122-3.761719-.8203122s-2.609375.2812502-3.765625.8203122l-117.054688 53.402344v.113281h-.183593c-.285157.152344-.519531.375-.804688.550782-.246093.140624-.480469.296874-.703125.464843-.28125.253907-.535156.527344-.757812.816407-.179688.199218-.363282.375-.519532.574218-.210937.339844-.386718.695313-.519531 1.0625 0 .199219-.210937.375-.289062.550782-.1875.585937-.285157 1.1875-.285157 1.792968v129.730469c0 1.21875.390626 2.414063 1.128907 3.460937.738281 1.046876 1.796875 1.90625 3.0625 2.484376l117.058593 53.382812c.359376.144531.734376.261719 1.117188.351562l.625.222657c.65625.140625 1.332031.214843 2.007812.21875.683594-.007813 1.367188-.082031 2.03125-.21875l.625-.222657c.382813-.09375.757813-.210937 1.121094-.351562l116.898438-53.515625c1.265625-.578125 2.324218-1.4375 3.0625-2.484375.738281-1.046875 1.128906-2.242188 1.128906-3.460938v-129.644531c0-.601562-.097656-1.203125-.285156-1.789062zm-124.714844-43.722657 99.789062 45.511719-4.246093 1.925781-95.542969 43.589844-95.539062-43.589844-4.246094-1.925781zm-108.953125 56.808594 101.113281 46.109375v114.390625l-101.113281-46.109375zm117.03125 160.5v-114.390625l101.113281-46.109375v114.390625zm0 0" fill="#f79723"/></svg>

<svg xmlns="http://www.w3.org/2000/svg" xmlns:xlink="http://www.w3.org/1999/xlink" width="250px" height="250px" viewBox="0 0 250 250" version="1.1">
<g id="surface1">
<path style=" stroke:none;fill-rule:nonzero;fill:rgb(1.176471%,1.176471%,1.176471%);fill-opacity:1;" d="M 234.578125 52.386719 L 234.578125 194.539062 C 234.578125 195.929688 233.929688 197.261719 232.773438 198.246094 C 231.613281 199.226562 230.042969 199.777344 228.40625 199.777344 L 195.351562 199.777344 C 193.714844 199.777344 192.144531 199.226562 190.988281 198.246094 C 189.832031 197.261719 189.179688 195.929688 189.179688 194.539062 L 189.179688 55.878906 C 189.179688 53.59375 190.25 51.402344 192.15625 49.785156 C 194.058594 48.167969 196.644531 47.257812 199.339844 47.257812 L 228.433594 47.257812 C 230.042969 47.265625 231.585938 47.804688 232.734375 48.761719 C 233.882812 49.71875 234.546875 51.019531 234.578125 52.386719 Z M 234.578125 52.386719 "/>
<path style=" stroke:none;fill-rule:nonzero;fill:rgb(1.176471%,1.176471%,1.176471%);fill-opacity:1;" d="M 104.488281 103.707031 L 74.917969 77.453125 C 67.859375 71.1875 64.019531 62.796875 64.25 54.128906 C 64.480469 45.460938 68.757812 37.222656 76.144531 31.230469 L 95.441406 15.578125 C 102.828125 9.585938 112.714844 6.328125 122.929688 6.523438 C 133.144531 6.71875 142.851562 10.351562 149.910156 16.617188 L 176.636719 40.34375 C 184.433594 47.265625 188.671875 56.527344 188.417969 66.101562 C 188.164062 75.671875 183.4375 84.765625 175.285156 91.378906 L 158.886719 104.683594 C 151.511719 110.664062 141.644531 113.921875 131.449219 113.738281 C 121.253906 113.554688 111.558594 109.945312 104.488281 103.707031 Z M 104.488281 103.707031 "/>
<path style=" stroke:none;fill-rule:nonzero;fill:rgb(1.176471%,1.176471%,1.176471%);fill-opacity:1;" d="M 155.398438 233 L 95.628906 233.824219 C 93.964844 233.847656 92.316406 233.59375 90.769531 233.074219 C 89.222656 232.554688 87.8125 231.785156 86.617188 230.800781 C 85.421875 229.820312 84.46875 228.648438 83.808594 227.355469 C 83.144531 226.0625 82.792969 224.667969 82.765625 223.257812 L 82.707031 220.1875 C 82.679688 218.773438 82.980469 217.375 83.589844 216.0625 C 84.203125 214.75 85.113281 213.554688 86.269531 212.539062 C 87.425781 211.527344 88.804688 210.714844 90.328125 210.15625 C 91.855469 209.59375 93.496094 209.292969 95.15625 209.269531 L 151.308594 208.496094 C 155.625 208.4375 159.792969 209.835938 162.894531 212.382812 C 165.996094 214.933594 167.78125 218.421875 167.851562 222.085938 C 167.90625 224.933594 166.621094 227.683594 164.289062 229.730469 C 161.953125 231.78125 158.753906 232.957031 155.398438 233 Z M 155.398438 233 "/>
<path style=" stroke:none;fill-rule:nonzero;fill:rgb(1.176471%,1.176471%,1.176471%);fill-opacity:1;" d="M 58.890625 52.960938 L 58.890625 199.316406 C 58.890625 199.832031 58.652344 200.324219 58.222656 200.691406 C 57.792969 201.054688 57.207031 201.261719 56.601562 201.261719 L 18.078125 201.261719 C 17.46875 201.261719 16.886719 201.054688 16.457031 200.691406 C 16.027344 200.324219 15.785156 199.832031 15.785156 199.316406 L 15.785156 56.367188 C 15.785156 54.945312 16.449219 53.585938 17.628906 52.582031 C 18.8125 51.582031 20.417969 51.015625 22.089844 51.015625 L 56.574219 51.015625 C 57.183594 51.015625 57.765625 51.222656 58.195312 51.585938 C 58.625 51.953125 58.867188 52.445312 58.867188 52.960938 Z M 58.890625 52.960938 "/>
<path style=" stroke:none;fill-rule:nonzero;fill:rgb(1.176471%,1.176471%,1.176471%);fill-opacity:1;" d="M 197.054688 36.941406 L 204.09375 209.71875 C 204.113281 210.234375 203.894531 210.734375 203.480469 211.113281 C 203.0625 211.488281 202.488281 211.710938 201.882812 211.726562 L 51.992188 216.125 C 51.386719 216.144531 50.792969 215.957031 50.347656 215.605469 C 49.90625 215.253906 49.644531 214.765625 49.621094 214.25 L 42.722656 44.875 C 42.664062 43.457031 43.273438 42.078125 44.414062 41.042969 C 45.554688 40.003906 47.132812 39.394531 48.804688 39.34375 L 194.582031 35.070312 C 195.1875 35.050781 195.78125 35.238281 196.222656 35.589844 C 196.667969 35.941406 196.929688 36.429688 196.949219 36.945312 Z M 197.054688 36.941406 "/>
<path style=" stroke:none;fill-rule:nonzero;fill:rgb(1.176471%,1.176471%,1.176471%);fill-opacity:1;" d="M 163.65625 223.96875 L 92.296875 224.953125 C 88.941406 224.996094 85.699219 223.910156 83.285156 221.929688 C 80.875 219.945312 79.488281 217.234375 79.433594 214.382812 L 78.605469 171.152344 C 78.554688 168.304688 79.835938 165.554688 82.167969 163.507812 C 84.503906 161.460938 87.703125 160.285156 91.058594 160.238281 L 158.773438 159.304688 C 163.089844 159.246094 167.257812 160.644531 170.359375 163.191406 C 173.460938 165.742188 175.246094 169.230469 175.3125 172.894531 L 176.082031 213.054688 C 176.136719 215.902344 174.855469 218.652344 172.519531 220.699219 C 170.183594 222.746094 166.988281 223.921875 163.628906 223.96875 Z M 163.65625 223.96875 "/>
<path style=" stroke:none;fill-rule:nonzero;fill:rgb(100%,100%,100%);fill-opacity:1;" d="M 101.347656 125.464844 L 39.175781 97.105469 C 37.960938 96.550781 36.601562 96.273438 35.222656 96.296875 C 33.84375 96.324219 32.5 96.652344 31.316406 97.25 C 30.132812 97.851562 29.152344 98.699219 28.46875 99.714844 C 27.789062 100.730469 27.429688 101.882812 27.425781 103.050781 L 27.425781 171.972656 C 27.414062 173.195312 27.796875 174.398438 28.535156 175.445312 C 29.277344 176.496094 30.34375 177.351562 31.621094 177.917969 L 93.796875 206.277344 C 94.957031 206.804688 96.253906 207.085938 97.574219 207.09375 C 99.015625 207.097656 100.429688 206.761719 101.660156 206.121094 C 102.84375 205.523438 103.820312 204.675781 104.5 203.660156 C 105.179688 202.644531 105.539062 201.5 105.542969 200.332031 L 105.542969 131.410156 C 105.539062 130.191406 105.148438 128.992188 104.410156 127.945312 C 103.671875 126.898438 102.613281 126.042969 101.347656 125.464844 Z M 86.035156 133.839844 L 71.03125 143.65625 L 57.355469 137.398438 L 57.355469 152.5625 L 43.367188 161.691406 L 43.367188 114.390625 Z M 46.964844 169.585938 L 61.992188 159.792969 L 75.667969 166.023438 L 75.667969 150.863281 L 89.652344 141.734375 L 89.652344 189.101562 Z M 46.964844 169.585938 "/>
<path style=" stroke:none;fill-rule:nonzero;fill:rgb(100%,100%,100%);fill-opacity:1;" d="M 171.234375 52.054688 L 125 73.144531 L 96.503906 60.144531 L 142.738281 39.058594 L 130.078125 33.289062 C 128.519531 32.582031 126.78125 32.210938 125.011719 32.210938 C 123.246094 32.210938 121.503906 32.582031 119.945312 33.289062 L 68.140625 56.875 C 67.449219 57.195312 66.871094 57.664062 66.472656 58.238281 C 66.070312 58.8125 65.859375 59.46875 65.859375 60.136719 C 65.859375 60.800781 66.070312 61.457031 66.472656 62.03125 C 66.871094 62.605469 67.449219 63.074219 68.140625 63.394531 L 119.867188 86.980469 C 121.421875 87.699219 123.164062 88.074219 124.933594 88.074219 C 126.703125 88.074219 128.445312 87.699219 130 86.980469 L 181.703125 63.394531 C 182.402344 63.082031 182.984375 62.613281 183.390625 62.035156 C 183.800781 61.460938 184.015625 60.804688 184.015625 60.136719 C 184.015625 59.464844 183.800781 58.808594 183.390625 58.234375 C 182.984375 57.660156 182.402344 57.1875 181.703125 56.875 Z M 171.234375 52.054688 "/>
<path style=" stroke:none;fill-rule:nonzero;fill:rgb(100%,100%,100%);fill-opacity:1;" d="M 218.691406 97.257812 C 217.519531 96.652344 216.179688 96.320312 214.808594 96.292969 C 213.4375 96.265625 212.082031 96.546875 210.878906 97.105469 L 148.703125 125.464844 C 147.4375 126.042969 146.378906 126.898438 145.640625 127.945312 C 144.902344 128.992188 144.511719 130.191406 144.507812 131.410156 L 144.507812 200.332031 C 144.523438 202.117188 145.363281 203.828125 146.851562 205.09375 C 148.335938 206.359375 150.347656 207.078125 152.453125 207.09375 C 153.773438 207.089844 155.070312 206.808594 156.230469 206.277344 L 218.40625 177.917969 C 219.683594 177.351562 220.75 176.496094 221.488281 175.445312 C 222.230469 174.398438 222.613281 173.195312 222.597656 171.972656 L 222.597656 103.050781 C 222.609375 101.878906 222.253906 100.726562 221.566406 99.707031 C 220.878906 98.691406 219.886719 97.84375 218.691406 97.257812 Z M 206.65625 161.671875 L 192.671875 152.542969 L 192.671875 137.378906 L 178.996094 143.632812 L 163.964844 133.839844 L 206.65625 114.390625 Z M 160.398438 141.777344 L 174.386719 150.90625 L 174.386719 166.070312 L 188.058594 159.835938 L 203.089844 169.628906 L 160.398438 189.101562 Z M 160.398438 141.777344 "/>
<path style=" stroke:none;fill-rule:nonzero;fill:rgb(96.862745%,59.215689%,13.725491%);fill-opacity:1;" d="M 249.714844 58.355469 C 249.640625 58.167969 249.554688 57.984375 249.453125 57.804688 C 249.308594 57.4375 249.128906 57.082031 248.90625 56.742188 C 248.90625 56.542969 248.570312 56.367188 248.414062 56.167969 C 248.191406 55.875 247.9375 55.601562 247.65625 55.351562 C 247.425781 55.183594 247.183594 55.027344 246.929688 54.886719 C 246.679688 54.691406 246.417969 54.503906 246.148438 54.332031 L 245.964844 54.332031 L 245.808594 54.222656 L 128.777344 0.863281 C 127.625 0.324219 126.332031 0.0429688 125.015625 0.0429688 C 123.699219 0.0429688 122.40625 0.324219 121.25 0.863281 L 4.195312 54.265625 L 4.195312 54.378906 L 4.011719 54.378906 C 3.726562 54.53125 3.492188 54.753906 3.207031 54.929688 C 2.960938 55.070312 2.726562 55.226562 2.503906 55.394531 C 2.222656 55.648438 1.96875 55.921875 1.746094 56.210938 C 1.566406 56.410156 1.382812 56.585938 1.226562 56.785156 C 1.015625 57.125 0.839844 57.480469 0.707031 57.847656 C 0.707031 58.046875 0.496094 58.222656 0.417969 58.398438 C 0.230469 58.984375 0.132812 59.585938 0.132812 60.191406 L 0.132812 189.921875 C 0.132812 191.140625 0.523438 192.335938 1.261719 193.382812 C 2 194.429688 3.058594 195.289062 4.324219 195.867188 L 121.382812 249.25 C 121.742188 249.394531 122.117188 249.511719 122.5 249.601562 L 123.125 249.824219 C 123.78125 249.964844 124.457031 250.039062 125.132812 250.042969 C 125.816406 250.035156 126.5 249.960938 127.164062 249.824219 L 127.789062 249.601562 C 128.171875 249.507812 128.546875 249.390625 128.910156 249.25 L 245.808594 195.734375 C 247.074219 195.15625 248.132812 194.296875 248.871094 193.25 C 249.609375 192.203125 250 191.007812 250 189.789062 L 250 60.144531 C 250 59.542969 249.902344 58.941406 249.714844 58.355469 Z M 125 14.632812 L 224.789062 60.144531 L 220.542969 62.070312 L 125 105.660156 L 29.460938 62.070312 L 25.214844 60.144531 Z M 16.046875 71.441406 L 117.160156 117.550781 L 117.160156 231.941406 L 16.046875 185.832031 Z M 133.078125 231.941406 L 133.078125 117.550781 L 234.191406 71.441406 L 234.191406 185.832031 Z M 133.078125 231.941406 "/>
</g>
</svg>
